public/phone.svg

<svg width="89" height="88" viewBox="0 0 89 88" fill="none" xmlns="http://www.w3.org/2000/svg">
<g clip-path="url(#clip0_698_6537)">
<path fill-rule="evenodd" clip-rule="evenodd" d="M74.0193 87.1155C75.4305 86.9396 76.7478 86.4189 77.8043 85.6191C78.8608 84.8193 79.6093 83.7763 79.9554 82.6219C80.3014 81.4675 80.2293 80.2534 79.7484 79.1331C79.2674 78.0128 78.3992 77.0365 77.2532 76.3275C76.1071 75.6186 74.7348 75.2088 73.3096 75.15C71.8845 75.0911 70.4703 75.3858 69.2458 75.9968C68.0214 76.6079 67.0419 77.5078 66.4305 78.583C65.8191 79.6582 65.6036 80.8604 65.8111 82.0377C65.949 82.821 66.2708 83.574 66.7582 84.2534C67.2457 84.9329 67.8889 85.5254 68.6514 85.9972C69.414 86.4689 70.2807 86.8104 71.2018 87.0023C72.1229 87.1942 73.0803 87.2327 74.0193 87.1155Z" fill="#23356B" stroke="#23356B" stroke-width="2" stroke-linecap="round" stroke-linejoin="round"/>
<path d="M22.5859 48.6055C25.1134 49.3578 27.4134 50.5613 29.3252 52.1319C34.1633 55.8881 38.0095 61.9052 38.5517 67.4149C38.8264 69.3817 38.4913 71.3744 37.5783 73.2022C37.1936 73.911 36.656 74.5549 35.9925 75.1018" stroke="#23356B" stroke-width="2" stroke-linecap="round" stroke-linejoin="round"/>
<path d="M71.8438 24.5996C74.1225 25.4378 76.2086 26.6006 78.0087 28.036C83.2051 32.0909 87.354 38.5683 87.943 44.5082C88.2297 46.6246 87.8774 48.7673 86.918 50.7412C86.4952 51.5066 85.9097 52.2019 85.1899 52.7935" stroke="#23356B" stroke-width="2" stroke-linecap="round" stroke-linejoin="round"/>
<path d="M85.1936 52.793L84.777 53.1063L81.2491 54.8111L79.1223 55.8413L77.3203 56.6961" stroke="#23356B" stroke-width="2" stroke-linecap="round" stroke-linejoin="round"/>
<path d="M77.3203 56.6945C77.536 56.5437 77.742 56.3836 77.9375 56.2147C78.0709 56.0824 78.2295 55.9509 78.3551 55.8186C78.3856 55.79 78.4182 55.7629 78.4525 55.7374C78.5713 55.5905 78.7046 55.424 78.8418 55.2576C78.9586 55.0912 79.0832 54.9329 79.199 54.7429C79.2989 54.6106 79.3775 54.4678 79.4327 54.3184" stroke="#23356B" stroke-width="2" stroke-linecap="round" stroke-linejoin="round"/>
<path d="M79.4609 54.3177C79.4727 54.3031 79.4786 54.2857 79.4776 54.2682C79.5584 54.146 79.6258 54.018 79.6791 53.8858C79.7765 53.691 79.8533 53.5034 79.936 53.3086C79.9574 53.2591 79.9714 53.2076 79.9779 53.1552C80.0762 52.9121 80.1548 52.6636 80.2127 52.4116C80.3017 52.1067 80.3667 51.7973 80.4073 51.4853C80.4571 51.2019 80.4895 50.9166 80.5045 50.6305C80.5376 50.2822 80.562 49.9136 80.562 49.5386V49.3844C80.562 49.0596 80.5376 48.7097 80.5045 48.3761C80.5045 48.2787 80.4784 48.1951 80.4784 48.0977" stroke="#23356B" stroke-width="2" stroke-linecap="round" stroke-linejoin="round"/>
<path d="M80.4862 48.0833C80.4541 47.6864 80.3956 47.3032 80.3274 46.9216C80.3245 46.8444 80.3138 46.7676 80.2953 46.6919C80.2126 46.2746 80.1115 45.8647 79.9947 45.4328C79.9538 45.238 79.8973 45.0366 79.8359 44.8418" stroke="#23356B" stroke-width="2" stroke-linecap="round" stroke-linejoin="round"/>
<path d="M79.8366 44.8201C79.7947 44.6748 79.7617 44.5425 79.7199 44.4093C79.6537 44.2291 79.5943 44.0481 79.5369 43.8605C79.5203 43.8321 79.5204 43.798 79.5029 43.7631C79.4768 43.7088 79.4546 43.6533 79.4366 43.5967C79.2857 43.1859 79.1201 42.7687 78.9439 42.3717C78.7434 41.926 78.5547 41.5023 78.3269 41.0639C78.1936 40.8066 78.0524 40.5216 77.8927 40.257C77.4891 39.4936 77.0376 38.7485 76.5404 38.0245C76.3457 37.7461 76.1648 37.4814 75.9486 37.2176C75.7063 36.8839 75.4737 36.556 75.2147 36.2361C74.3919 35.1876 73.4709 34.195 72.4607 33.2674C72.2368 33.0514 72.0199 32.8355 71.7862 32.6333C71.2859 32.1877 70.7776 31.7785 70.2597 31.3954C70.0008 31.1794 69.7418 30.9984 69.4809 30.8173C68.9212 30.435 68.3711 30.0737 67.7783 29.7393C67.3947 29.5103 66.987 29.2944 66.5859 29.0898" stroke="#23356B" stroke-width="2" stroke-linecap="round" stroke-linejoin="round"/>
<path d="M66.3347 28.9606C65.5387 28.5857 64.7107 28.2601 63.8573 27.9864C63.8034 27.9738 63.7506 27.9578 63.6995 27.9385C63.6172 27.9075 63.5302 27.8864 63.4407 27.876C63.3837 27.8454 63.3218 27.8216 63.2568 27.8054C63.2237 27.8054 63.1992 27.7851 63.1817 27.7851C63.0914 27.7596 62.9994 27.7385 62.9062 27.7218C62.6702 27.6632 62.4307 27.6147 62.1887 27.5765C61.8573 27.5071 61.5203 27.458 61.1803 27.4296C61.1446 27.4133 61.1039 27.406 61.0634 27.4085C60.7678 27.3756 60.4699 27.3596 60.1717 27.3605C59.5584 27.3396 58.9444 27.3838 58.3445 27.4921C58.158 27.5198 57.9738 27.557 57.7927 27.6033C57.6262 27.6382 57.4684 27.6731 57.3516 27.708" stroke="#23356B" stroke-width="2" stroke-linecap="round" stroke-linejoin="round"/>
<path d="M52.2891 33.6425C52.8644 30.6031 54.6837 28.5508 57.2858 27.7366L57.3112 27.7228C57.3278 27.7228 57.3277 27.7228 57.3452 27.709" stroke="#23356B" stroke-width="2" stroke-linecap="round" stroke-linejoin="round"/>
<path d="M57.3516 27.7074L61.0215 25.9336H61.0379" stroke="#23356B" stroke-width="2" stroke-linecap="round" stroke-linejoin="round"/>
<path d="M68.8516 57.3785C68.8727 57.3766 68.8938 57.3816 68.9107 57.3923C72.2809 58.4355 75.2336 58.1229 77.3197 56.6958C77.535 56.545 77.7406 56.3848 77.9357 56.216C78.0691 56.0837 78.228 55.9522 78.3535 55.8198C78.3841 55.7913 78.4165 55.7642 78.4507 55.7387C78.5695 55.5917 78.702 55.4253 78.8403 55.2589C78.9571 55.0925 79.0816 54.9342 79.1975 54.7442C79.2958 54.608 79.3822 54.4661 79.4563 54.3196C79.4685 54.3052 79.4744 54.2877 79.4729 54.2701C79.5537 54.148 79.6212 54.02 79.6745 53.8878C79.7928 53.6497 79.8928 53.4057 79.9742 53.1571C80.0722 52.914 80.1505 52.6656 80.208 52.4135C80.2973 52.1087 80.3623 51.7993 80.4027 51.4873C80.4525 51.2039 80.4848 50.9186 80.4999 50.6324C80.533 50.2842 80.5574 49.9156 80.5574 49.5406V49.3863C80.5574 48.9561 80.5166 48.5315 80.4737 48.0996" stroke="#23356B" stroke-width="2" stroke-linecap="round" stroke-linejoin="round"/>
<path d="M80.4908 48.0847C80.4599 47.618 80.395 47.1533 80.2962 46.6933C80.2135 46.276 80.1133 45.866 79.9965 45.4342C79.9556 45.2393 79.8991 45.038 79.8378 44.8432C79.7404 44.4746 79.6207 44.1264 79.5029 43.7651C79.4768 43.7108 79.4548 43.6552 79.4368 43.5987C79.2859 43.1879 79.1203 42.7707 78.9441 42.3737C78.7436 41.928 78.5547 41.5042 78.3269 41.0659C78.1936 40.8085 78.0524 40.5236 77.8927 40.2589C77.4891 39.4956 77.0378 38.7504 76.5407 38.0265C76.346 37.748 76.165 37.4834 75.9489 37.2196C75.7308 36.8859 75.4737 36.5579 75.2147 36.2381C74.3919 35.1896 73.4712 34.1969 72.4609 33.2693C72.2371 33.0534 72.0199 32.8375 71.7862 32.6353C71.2859 32.1896 70.7778 31.7805 70.26 31.3973C70.001 31.1814 69.742 31.0004 69.4811 30.8193C68.9214 30.437 68.3714 30.0757 67.7785 29.7413C67.395 29.5123 66.987 29.2964 66.5859 29.0918" stroke="#23356B" stroke-width="2" stroke-linecap="round" stroke-linejoin="round"/>
<path d="M66.3284 28.9606C65.8358 28.7317 65.3364 28.5157 64.8603 28.3339C64.719 28.279 64.5744 28.2302 64.4271 28.1878C64.336 28.1463 64.2409 28.1113 64.1428 28.083C63.8352 27.9718 63.5344 27.8874 63.2502 27.8046C63.2171 27.8046 63.1928 27.7843 63.1753 27.7843C63.0346 27.7413 62.8896 27.7087 62.742 27.6869C62.559 27.6397 62.3723 27.6028 62.1833 27.5765C61.8515 27.5071 61.5143 27.4579 61.1739 27.4295C61.0382 27.3972 60.8984 27.3787 60.7573 27.3743C60.5612 27.3524 60.3626 27.3478 60.1653 27.3605C59.552 27.3395 58.9381 27.3837 58.3382 27.492C58.1516 27.5198 57.9674 27.5569 57.7863 27.6033C57.624 27.6306 57.4649 27.6703 57.3112 27.7218L57.2858 27.7356C54.6837 28.5474 52.8644 30.6021 52.2891 33.6414" stroke="#23356B" stroke-width="2" stroke-linecap="round" stroke-linejoin="round"/>
<path d="M22.6641 49.998C24.1921 50.7479 25.6159 51.6365 26.9093 52.6478C32.1057 56.7108 36.2341 63.1801 36.827 69.1338C37.112 71.1845 36.7912 73.2622 35.8925 75.1858C35.8506 75.2548 35.8341 75.3043 35.7951 75.3676C35.3711 76.1228 34.7952 76.812 34.0925 77.4053" stroke="#23356B" stroke-width="2" stroke-linecap="round" stroke-linejoin="round"/>
<path d="M34.0921 77.4043L33.6502 77.7104L26.2188 81.3001" stroke="#23356B" stroke-width="2" stroke-linecap="round" stroke-linejoin="round"/>
<path d="M9.66342 52.0006C9.54456 51.9888 9.42491 51.9842 9.30526 51.9868C8.93525 51.9641 8.56357 51.9687 8.19454 52.0006C8.05437 52.0019 7.91454 52.0136 7.77685 52.0355C7.52356 52.0541 7.2727 52.0913 7.02727 52.1467C6.92027 52.1555 6.81445 52.1721 6.71094 52.1963" stroke="#23356B" stroke-width="2" stroke-linecap="round" stroke-linejoin="round"/>
<path d="M6.70626 52.1963L6.4055 52.2775L6.17188 52.3473L11.9611 49.5645" stroke="#23356B" stroke-width="2" stroke-linecap="round" stroke-linejoin="round"/>
<path fill-rule="evenodd" clip-rule="evenodd" d="M15.2155 81.0015C7.3577 77.2168 0.976562 68.0126 0.976562 60.4385C0.976562 52.8644 7.3577 49.795 15.2155 53.5796C23.0733 57.3642 29.4455 66.5806 29.4455 74.1499C29.4455 81.7191 23.0801 84.7853 15.2155 81.0015Z" stroke="#23356B" stroke-width="2" stroke-linecap="round" stroke-linejoin="round"/>
<path d="M57.2266 9.16406C62.4833 10.1431 66.0693 14.0747 66.6446 20.2857C66.704 20.854 66.7207 26.0244 66.7207 26.6438C66.7253 27.4448 66.6808 28.2454 66.5874 29.0426" stroke="#23356B" stroke-width="2" stroke-linecap="round" stroke-linejoin="round"/>
<path d="M63.8698 4.92071C60.0227 3.23704 56.9532 3.13475 52.7245 3.78419C41.188 6.18468 32.496 14.0178 26.3573 22.1155C21.5523 28.8209 18.5414 35.2553 17.565 43.0542C17.5056 46.0871 17.2894 49.2807 17.5056 52.3274C15.8163 51.4685 13.9227 50.9272 11.9569 50.7412C11.8887 47.7221 11.8886 44.8004 11.914 41.761C12.4727 34.4841 14.9094 28.5368 18.9385 22.109C24.6265 13.6508 32.3432 6.04668 43.2294 2.13867" stroke="#23356B" stroke-width="2" stroke-linecap="round" stroke-linejoin="round"/>
<path fill-rule="evenodd" clip-rule="evenodd" d="M64.4746 55.9946C57.3518 52.564 51.5781 44.2316 51.5781 37.3654C51.5781 30.4992 57.3518 27.7237 64.4746 31.1535C71.5975 34.5834 77.3797 42.9303 77.3797 49.7892C77.3797 56.6481 71.5897 59.4237 64.4746 55.9946Z" stroke="#23356B" stroke-width="2" stroke-linecap="round" stroke-linejoin="round"/>
<path fill-rule="evenodd" clip-rule="evenodd" d="M64.4718 52.7367C59.2151 50.2055 54.9453 44.0626 54.9453 38.9986C54.9453 33.9346 59.218 31.8824 64.4718 34.4152C69.7256 36.948 73.9901 43.0958 73.9901 48.1606C73.9901 53.2254 69.7149 55.2631 64.4718 52.7367Z" fill="#F2F5FC" stroke="#23356B" stroke-width="2" stroke-linecap="round" stroke-linejoin="round"/>
<path d="M66.5933 29.1C66.6907 28.237 66.7266 27.4853 66.7266 26.6442C66.7266 26.0248 66.7101 20.8561 66.6507 20.2862C65.6831 9.85134 56.1986 5.86541 44.6368 11.4311C32.8997 17.0861 23.3082 30.5263 22.5898 42.0043C22.5645 42.45 22.5469 47.4653 22.5469 47.911C22.5469 48.6351 22.5897 49.3292 22.6646 49.9981" stroke="#23356B" stroke-width="2" stroke-linecap="round" stroke-linejoin="round"/>
<path d="M22.6632 49.9961L22.2885 50.2185L17.5078 52.3292" stroke="#23356B" stroke-width="2" stroke-linecap="round" stroke-linejoin="round"/>
<path d="M17.5114 52.3268C17.454 51.7001 17.4375 51.0466 17.4375 50.3712C17.4375 49.6617 17.454 44.3639 17.5114 43.6381C18.6465 29.6208 30.3612 13.3774 44.639 6.50391" stroke="#23356B" stroke-width="2" stroke-linecap="round" stroke-linejoin="round"/>
<path fill-rule="evenodd" clip-rule="evenodd" d="M14.5151 77.2101C9.0102 74.5604 4.54688 68.1261 4.54688 62.8177C4.54688 57.5094 9.0102 55.367 14.5151 58.0167C20.0201 60.6665 24.4747 67.1162 24.4747 72.4173C24.4747 77.7183 20.0123 79.8607 14.5151 77.2101Z" fill="#F2F5FC" stroke="#23356B" stroke-width="2" stroke-linecap="round" stroke-linejoin="round"/>
<path d="M79.1232 55.8398C81.6085 62.4203 82.4175 69.7939 77.6797 76.5911" stroke="#23356B" stroke-width="2" stroke-linecap="round" stroke-linejoin="round"/>
<path d="M81.2423 54.8105C83.9359 62.219 84.4703 70.5384 79.1406 78.0102" stroke="#23356B" stroke-width="2" stroke-linecap="round" stroke-linejoin="round"/>
<path d="M66.5949 29.0933L66.3359 28.9609" stroke="#23356B" stroke-width="2" stroke-linecap="round" stroke-linejoin="round"/>
<path d="M60.4809 14.4156C59.9111 12.4746 58.7956 10.6745 57.2266 9.16406" stroke="#23356B" stroke-width="2" stroke-linecap="round" stroke-linejoin="round"/>
<path d="M66.3298 28.9671C64.6333 28.1059 62.7317 27.5645 60.7578 27.3809" stroke="#23356B" stroke-width="2" stroke-linecap="round" stroke-linejoin="round"/>
<path d="M60.7587 27.3809H60.7422" stroke="#23356B" stroke-width="2" stroke-linecap="round" stroke-linejoin="round"/>
<path d="M60.7434 27.3802C61.5349 24.4171 61.3186 17.503 60.4844 14.4141" stroke="#23356B" stroke-width="2" stroke-linecap="round" stroke-linejoin="round"/>
<path d="M43.2344 2.13748C48.5222 0.495212 53.1696 -0.0121713 58.3231 2.24139" stroke="#23356B" stroke-width="2" stroke-linecap="round" stroke-linejoin="round"/>
<path d="M58.3281 2.24023L63.8769 4.91918" stroke="#23356B" stroke-width="2" stroke-linecap="round" stroke-linejoin="round"/>
<path d="M61.7109 4.11328C67.8769 5.94633 71.8458 11.3732 71.8458 19.6041" stroke="#23356B" stroke-width="2" stroke-linecap="round" stroke-linejoin="round"/>
<path d="M71.8446 19.6035L71.8203 25.1408" stroke="#23356B" stroke-width="2" stroke-linecap="round" stroke-linejoin="round"/>
<path d="M71.8259 25.1426C71.8259 25.6711 71.7918 26.0891 71.7344 26.6241" stroke="#23356B" stroke-width="2" stroke-linecap="round" stroke-linejoin="round"/>
<path d="M71.7327 26.623L66.5938 29.0999" stroke="#23356B" stroke-width="2" stroke-linecap="round" stroke-linejoin="round"/>
</g>
<defs>
<clipPath id="clip0_698_6537">
<rect width="89" height="88" fill="white"/>
</clipPath>
</defs>
</svg>

<svg xmlns="http://www.w3.org/2000/svg" width="89" height="88" fill="none" viewBox="0 0 89 88"><g stroke="#23356b" stroke-linecap="round" stroke-linejoin="round" stroke-width="2" clip-path="url(#a)"><path fill="#23356b" fill-rule="evenodd" d="M74.02 87.116c1.41-.176 2.728-.697 3.784-1.497 1.057-.8 1.805-1.843 2.151-2.997a5.08 5.08 0 0 0-.207-3.489c-.48-1.12-1.349-2.096-2.495-2.805s-2.518-1.12-3.943-1.178a8.4 8.4 0 0 0-4.064.847c-1.225.61-2.204 1.51-2.815 2.586-.612 1.075-.827 2.277-.62 3.455a5.4 5.4 0 0 0 .947 2.215 6.6 6.6 0 0 0 1.893 1.744c.763.472 1.63.813 2.55 1.005a8.6 8.6 0 0 0 2.818.114" clip-rule="evenodd"/><path d="M22.586 48.606c2.527.752 4.827 1.955 6.74 3.526 4.837 3.756 8.684 9.773 9.226 15.283.274 1.967-.06 3.96-.974 5.787a6.5 6.5 0 0 1-1.586 1.9M71.844 24.6c2.279.838 4.365 2 6.165 3.436 5.196 4.055 9.345 10.532 9.934 16.472.287 2.117-.066 4.26-1.025 6.233a7.1 7.1 0 0 1-1.728 2.053M85.194 52.793l-.417.313-3.528 1.705-2.127 1.03-1.802.855M77.32 56.695q.324-.227.618-.48c.133-.133.291-.264.417-.396q.046-.043.097-.082c.12-.147.253-.313.39-.48.117-.166.241-.324.357-.514q.15-.199.234-.425M79.46 54.318a.07.07 0 0 0 .018-.05q.12-.184.201-.382c.097-.195.174-.383.257-.577a.6.6 0 0 0 .042-.154q.148-.365.235-.743.134-.458.194-.927a7 7 0 0 0 .097-.855c.034-.348.058-.716.058-1.091v-.155c0-.324-.024-.674-.058-1.008 0-.097-.026-.18-.026-.278M80.486 48.083c-.032-.397-.09-.78-.159-1.161a1 1 0 0 0-.032-.23 19 19 0 0 0-.3-1.26 6 6 0 0 0-.16-.59M79.837 44.82c-.042-.145-.075-.278-.117-.41q-.098-.269-.183-.55c-.017-.028-.017-.062-.034-.097a1 1 0 0 1-.066-.166c-.151-.411-.317-.828-.493-1.225-.2-.446-.39-.87-.617-1.308-.133-.257-.275-.542-.434-.807a23 23 0 0 0-1.353-2.232c-.194-.279-.375-.544-.591-.807-.243-.334-.475-.662-.734-.982a25 25 0 0 0-2.754-2.969c-.224-.216-.441-.431-.675-.634q-.75-.666-1.526-1.238a11 11 0 0 0-.78-.578c-.559-.382-1.109-.743-1.702-1.078a21 21 0 0 0-1.192-.65M66.335 28.96q-1.196-.562-2.478-.974a1 1 0 0 1-.157-.047 1 1 0 0 0-.26-.063.8.8 0 0 0-.183-.07c-.033 0-.058-.02-.075-.02a3 3 0 0 0-.276-.064 8 8 0 0 0-.717-.146 8 8 0 0 0-1.009-.146.25.25 0 0 0-.117-.021 8 8 0 0 0-.891-.049 8.6 8.6 0 0 0-1.828.132q-.28.042-.551.111c-.167.035-.325.07-.441.105M52.29 33.643c.574-3.04 2.394-5.092 4.996-5.906l.025-.014c.017 0 .017 0 .034-.014M57.352 27.707l3.67-1.773h.016"/><path d="M68.852 57.379a.1.1 0 0 1 .059.013c3.37 1.043 6.323.73 8.409-.696q.322-.227.616-.48c.133-.132.292-.264.417-.396a1 1 0 0 1 .098-.081c.119-.147.251-.314.39-.48.116-.166.24-.325.357-.515q.147-.205.258-.424a.07.07 0 0 0 .017-.05q.12-.184.201-.382a5.5 5.5 0 0 0 .3-.73q.147-.366.234-.745.134-.457.195-.926.075-.425.097-.855c.033-.348.057-.716.057-1.091v-.155c0-.43-.04-.855-.083-1.286M80.49 48.085a10 10 0 0 0-.194-1.392 19 19 0 0 0-.3-1.259 6 6 0 0 0-.158-.59c-.098-.37-.217-.718-.335-1.079a1 1 0 0 1-.066-.166c-.151-.411-.317-.828-.493-1.225-.2-.446-.39-.87-.617-1.308-.133-.258-.275-.542-.434-.807a23 23 0 0 0-1.352-2.233c-.195-.278-.376-.543-.592-.806a12 12 0 0 0-.734-.982 25 25 0 0 0-2.754-2.969c-.224-.216-.441-.431-.675-.634-.5-.445-1.008-.854-1.526-1.238a11 11 0 0 0-.779-.578c-.56-.382-1.11-.743-1.703-1.078a21 21 0 0 0-1.192-.65M66.328 28.96a23 23 0 0 0-1.468-.626 5 5 0 0 0-.433-.146 2 2 0 0 0-.284-.105c-.308-.111-.609-.196-.893-.278-.033 0-.057-.02-.075-.02a3 3 0 0 0-.433-.098 5 5 0 0 0-.559-.11 8 8 0 0 0-1.01-.148 2 2 0 0 0-.416-.055 3.4 3.4 0 0 0-.592-.014 8.6 8.6 0 0 0-1.827.132q-.279.042-.552.111a3 3 0 0 0-.475.119l-.025.014c-2.602.811-4.422 2.866-4.997 5.905M22.664 49.998a24.2 24.2 0 0 1 4.245 2.65c5.197 4.063 9.325 10.532 9.918 16.486.285 2.05-.036 4.128-.934 6.052-.042.069-.059.118-.098.182-.424.755-1 1.444-1.703 2.037"/><path d="m34.092 77.404-.442.306-7.431 3.59M9.663 52a3 3 0 0 0-.358-.013 7.5 7.5 0 0 0-1.11.014q-.21.001-.418.035a5 5 0 0 0-.75.11 2 2 0 0 0-.316.05M6.706 52.196l-.3.082-.234.07 5.79-2.783"/><path d="M15.216 81.002C7.358 77.217.976 68.012.976 60.438c0-7.575 6.382-10.644 14.24-6.86 7.857 3.785 14.23 13.002 14.23 20.57 0 7.57-6.366 10.636-14.23 6.852" clip-rule="evenodd"/><path d="M57.227 9.164c5.256.98 8.842 4.91 9.418 11.122.059.568.076 5.738.076 6.358a20 20 0 0 1-.134 2.399"/><path d="M63.87 4.92c-3.847-1.683-6.917-1.785-11.145-1.136-11.537 2.4-20.229 10.234-26.368 18.332-4.805 6.705-7.816 13.14-8.792 20.938-.06 3.033-.276 6.227-.06 9.273a15.5 15.5 0 0 0-5.548-1.586c-.068-3.019-.068-5.94-.043-8.98.559-7.277 2.995-13.224 7.025-19.652 5.688-8.458 13.404-16.062 24.29-19.97"/><path d="M64.475 55.995c-7.123-3.431-12.897-11.763-12.897-18.63s5.774-9.641 12.897-6.212S77.38 42.93 77.38 49.79c0 6.86-5.79 9.635-12.905 6.206" clip-rule="evenodd"/><path fill="#f2f5fc" fill-rule="evenodd" d="M64.472 52.737c-5.257-2.532-9.527-8.674-9.527-13.738s4.273-7.117 9.527-4.584 9.518 8.68 9.518 13.746c0 5.064-4.275 7.102-9.518 4.576" clip-rule="evenodd"/><path d="M66.593 29.1c.098-.863.134-1.615.134-2.456 0-.62-.017-5.788-.076-6.358-.968-10.435-10.452-14.42-22.014-8.855C32.9 17.086 23.308 30.526 22.59 42.004c-.026.446-.043 5.461-.043 5.907 0 .724.043 1.418.118 2.087M22.663 49.996l-.375.222-4.78 2.111"/><path d="M17.511 52.327a22 22 0 0 1-.073-1.956c0-.71.016-6.007.073-6.733 1.136-14.017 12.85-30.26 27.128-37.134"/><path fill="#f2f5fc" fill-rule="evenodd" d="M14.515 77.21c-5.505-2.65-9.968-9.084-9.968-14.392 0-5.309 4.463-7.451 9.968-4.801s9.96 9.1 9.96 14.4-4.463 7.444-9.96 4.793" clip-rule="evenodd"/><path d="M79.123 55.84c2.486 6.58 3.294 13.954-1.443 20.751"/><path d="M81.242 54.81c2.694 7.409 3.228 15.728-2.101 23.2M66.595 29.093l-.26-.132M60.48 14.416c-.569-1.941-1.684-3.742-3.253-5.252M66.33 28.967a15.5 15.5 0 0 0-5.572-1.586M60.759 27.38h-.017M60.743 27.38c.792-2.963.576-9.877-.259-12.966M43.234 2.137c5.288-1.642 9.936-2.15 15.09.104M58.328 2.24l5.549 2.68M61.71 4.113c6.167 1.833 10.136 7.26 10.136 15.491M71.845 19.604l-.025 5.537M71.826 25.143c0 .528-.034.946-.092 1.481M71.733 26.623l-5.14 2.477"/></g><defs><clipPath id="a"><path fill="#fff" d="M0 0h89v88H0z"/></clipPath></defs></svg>
